X: 43490
T: Yellow Tinker, The
R: reel
M: 4/4
K: Gmixolydian
GE|:DGGG DEFE|DGGG dGBG|DGGG DEFA|1 cAFA c3d:|2 cAFA c2(3ABc||
dGGG d2Bc|dggg ^fdcA|dGGG dGBd|cAFA c2(3ABc|
dGGG dG (3ABc|dggg ^fgaf|ggde ^fgaf|gbag ^fdcA||
d2BG BdBG|BBdB ccce|d2BG DGde|fdcA FG (3ABc|
d2BG BdBG|BBdB c2ce|d2de f3d|cA^FA G2||

